svgs/regular/tower-cell.svg

<svg xmlns="http://www.w3.org/2000/svg" viewBox="0 0 576 512"><!--! Font Awesome Pro 6.1.1 by @fontawesome - https://fontawesome.com License - https://fontawesome.com/license (Commercial License) Copyright 2022 Fonticons, Inc. --><path d="M51.82 1.612C64.19 6.377 70.35 20.27 65.58 32.64C54.26 62.03 48 94.21 48 128C48 161.8 54.26 193.1 65.58 223.4C70.35 235.7 64.19 249.6 51.82 254.4C39.45 259.2 25.56 253 20.8 240.6C7.37 205.8 0 167.8 0 128C0 88.25 7.37 50.22 20.8 15.38C25.56 3.009 39.45-3.154 51.82 1.612V1.612zM524.2 1.612C536.6-3.154 550.4 3.009 555.2 15.38C568.6 50.22 576 88.25 576 128C576 167.8 568.6 205.8 555.2 240.6C550.4 253 536.6 259.2 524.2 254.4C511.8 249.6 505.6 235.7 510.4 223.4C521.7 193.1 528 161.8 528 128C528 94.21 521.7 62.03 510.4 32.64C505.6 20.27 511.8 6.377 524.2 1.612V1.612zM172.6 432L141.7 498.2C136.1 510.2 121.9 515.4 109.9 509.8C97.84 504.1 92.65 489.9 98.25 477.9L241.2 171.6C230.5 160.2 224 144.9 224 128C224 92.65 252.7 64 288 64C323.3 64 352 92.65 352 128C352 144.9 345.5 160.2 334.8 171.6L477.7 477.9C483.4 489.9 478.2 504.1 466.2 509.8C454.1 515.4 439.9 510.2 434.3 498.2L403.4 432H172.6zM291.3 191.9C290.2 191.1 289.1 192 288 192C286.9 192 285.8 191.1 284.7 191.9L239.8 288H336.2L291.3 191.9zM380.1 384L358.6 336H217.4L195 384H380.1zM152 128C152 147.4 156 165.8 163.3 182.4C168.6 194.5 163.1 208.7 150.9 213.1C138.8 219.3 124.6 213.8 119.3 201.6C109.5 179 104 154.1 104 128C104 101.9 109.5 76.96 119.3 54.39C124.6 42.25 138.8 36.7 150.9 42.01C163.1 47.31 168.6 61.46 163.3 73.61C156 90.23 152 108.6 152 128V128zM472 128C472 154.1 466.5 179 456.7 201.6C451.4 213.8 437.2 219.3 425.1 213.1C412.9 208.7 407.4 194.5 412.7 182.4C419.1 165.8 424 147.4 424 128C424 108.6 419.1 90.24 412.7 73.61C407.4 61.46 412.9 47.32 425.1 42.01C437.2 36.7 451.4 42.25 456.7 54.39C466.5 76.96 472 101.9 472 128V128z"/></svg>

<svg xmlns="http://www.w3.org/2000/svg" viewBox="0 0 576 512"><!--! Font Awesome Pro 6.5.1 by @fontawesome - https://fontawesome.com License - https://fontawesome.com/license (Commercial License) Copyright 2023 Fonticons, Inc. --><path d="M51.8 1.6c12.4 4.8 18.5 18.7 13.8 31C54.3 62 48 94.2 48 128s6.3 66 17.6 95.4c4.8 12.4-1.4 26.3-13.8 31s-26.3-1.4-31-13.8C7.4 205.8 0 167.8 0 128S7.4 50.2 20.8 15.4C25.6 3 39.5-3.2 51.8 1.6zm472.4 0c12.4-4.8 26.3 1.4 31 13.8C568.6 50.2 576 88.2 576 128s-7.4 77.8-20.8 112.6c-4.8 12.4-18.7 18.5-31 13.8s-18.5-18.7-13.8-31C521.7 194 528 161.8 528 128s-6.3-66-17.6-95.4c-4.8-12.4 1.4-26.3 13.8-31zM291.3 191.9c-1.1 .1-2.2 .1-3.3 .1s-2.2 0-3.3-.1L239.8 288h96.4l-44.8-96.1zM195 384H381l-22.4-48H217.4L195 384zm-22.4 48l-30.9 66.2c-5.6 12-19.9 17.2-31.9 11.6s-17.2-19.9-11.6-31.9L241.2 171.6C230.5 160.2 224 144.9 224 128c0-35.3 28.7-64 64-64s64 28.7 64 64c0 16.9-6.5 32.2-17.2 43.6L477.7 477.9c5.6 12 .4 26.3-11.6 31.9s-26.3 .4-31.9-11.6L403.4 432H172.6zM163.3 73.6C156 90.2 152 108.6 152 128s4 37.8 11.3 54.4c5.3 12.1-.2 26.3-12.4 31.6s-26.3-.2-31.6-12.4C109.5 179 104 154.1 104 128s5.5-51 15.3-73.6c5.3-12.1 19.5-17.7 31.6-12.4s17.7 19.5 12.4 31.6zM456.7 54.4C466.5 77 472 101.9 472 128s-5.5 51-15.3 73.6c-5.3 12.1-19.5 17.7-31.6 12.4s-17.7-19.5-12.4-31.6c7.3-16.6 11.3-35 11.3-54.4s-4-37.8-11.3-54.4c-5.3-12.1 .2-26.3 12.4-31.6s26.3 .2 31.6 12.4z"/></svg>
